src/img/pattern-3.svg

<svg height="274.468" viewBox="0 0 549 274.468" width="549" xmlns="http://www.w3.org/2000/svg"><path d="m411.838 137.163h-137.163v-137.163h137.163zm-68.51-120.303a52.628 52.628 0 0 0 -5.3.267 51.716 51.716 0 0 0 -46.23 46.23 52.573 52.573 0 0 0 0 10.591 51.716 51.716 0 0 0 46.23 46.23 52.568 52.568 0 0 0 10.591 0 51.716 51.716 0 0 0 46.23-46.23 52.568 52.568 0 0 0 0-10.591 51.716 51.716 0 0 0 -46.23-46.23 52.627 52.627 0 0 0 -5.291-.267zm-206.165-16.86v137.163l-137.163-137.163z" fill="#e9e2df"/><path d="m549 137.306v137.163l-137.163-137.163z" fill="#fff"/><path d="m411.838 0h137.162v137.163h-137.162z" fill="#e9e2df"/><path d="m137.468 0h11.324v137.163h-11.324zm19.579 0h11.324v137.163h-11.324zm19.579 0h11.324v137.163h-11.324zm19.579 0h11.324v137.163h-11.324zm19.579 0h11.324v137.163h-11.324zm19.579 0h11.324v137.163h-11.324zm19.579 0h11.324v137.163h-11.324z" fill="#fff"/></svg>

<svg xmlns="http://www.w3.org/2000/svg" width="549" height="274.468" viewBox="0 0 549 274.468"><defs><style>.a{fill:#e9e2df}.b{fill:#fff}</style></defs><path class="a" d="M411.838 137.163H274.675V0h137.163v137.163zM343.328 16.86a52.628 52.628 0 00-5.3.267 51.716 51.716 0 00-46.23 46.23 52.573 52.573 0 000 10.591 51.716 51.716 0 0046.23 46.23 52.568 52.568 0 0010.591 0 51.716 51.716 0 0046.23-46.23 52.568 52.568 0 000-10.591 51.716 51.716 0 00-46.23-46.23 52.627 52.627 0 00-5.291-.267zM137.163 0v137.163L0 0z"/><path class="b" d="M549 137.306v137.163L411.837 137.306z"/><path class="a" d="M411.838 0H549v137.163H411.838z"/><path class="b" d="M137.468 0h11.324v137.163h-11.324zM157.047 0h11.324v137.163h-11.324zM176.626 0h11.324v137.163h-11.324zM196.205 0h11.324v137.163h-11.324zM215.784 0h11.324v137.163h-11.324zM235.363 0h11.324v137.163h-11.324zM254.942 0h11.324v137.163h-11.324z"/></svg>
